assets/images/logo2.svg

<svg width="112" height="40" viewBox="0 0 112 40" fill="none" xmlns="http://www.w3.org/2000/svg">
<path fill-rule="evenodd" clip-rule="evenodd" d="M7.57196 0L5.67779 5.23245H31.9268L33.8209 0H7.57196ZM4.73011 7.84748L2.83594 13.0787H29.0849L30.9791 7.84748H4.73011ZM1.89417 15.695L0 20.9262H26.249L28.142 15.695H1.89417Z" fill="#543018"/>
<mask id="mask0" mask-type="alpha" maskUnits="userSpaceOnUse" x="39" y="7" width="73" height="34">
<path d="M39.3799 40.0003H111.233V7.94824H39.3799V40.0003Z" fill="#543018"/>
</mask>
<g mask="url(#mask0)">
<path fill-rule="evenodd" clip-rule="evenodd" d="M55.8032 22.9203V23.0308C57.0028 23.4748 58.1486 24.2512 58.749 24.7499C60.6039 26.3027 61.4228 28.3543 61.4228 31.016C61.4228 35.3981 59.131 38.5585 55.3663 39.557C54.2204 39.8894 53.0209 40.001 50.7828 40.001H39.3813V7.94824H49.4746C51.5479 7.94824 52.9659 8.05864 54.2204 8.39106C57.8765 9.38952 60.2769 11.9409 60.2769 15.9881C60.2769 18.1513 59.513 19.982 58.2585 21.2012C57.713 21.7557 56.9491 22.4217 55.8032 22.9203ZM45.7099 26.3028V34.7321H50.075C51.3832 34.7321 52.584 34.6217 53.4577 33.7894C54.3303 32.9572 54.7122 31.9041 54.7122 30.5174C54.7122 29.4644 54.4389 28.4659 53.8934 27.7452C52.9659 26.5806 51.8201 26.3028 49.8566 26.3028H45.7099ZM45.655 20.7572H49.2013C50.2922 20.7572 50.8377 20.7572 51.3832 20.591C52.8573 20.147 53.7848 18.8173 53.7848 16.9866C53.7848 14.8247 52.8024 13.8808 51.3832 13.438C50.7828 13.2718 50.1836 13.216 48.9828 13.216H45.655V20.7572ZM70.9156 40.001V13.3264H61.8047V7.94824H87.1202L85.3202 13.3264H77.2442V40.001H70.9156ZM89.0837 40.001V7.94824H109.598L107.799 13.3264H95.3586V20.4248H100.433C104.524 20.4248 106.653 21.4233 108.126 22.6983C109.271 23.6968 111.235 25.9145 111.235 30.2966C111.235 34.6217 109.217 37.0056 107.525 38.2261C105.562 39.6116 103.488 40.001 99.2868 40.001H89.0837ZM95.3586 34.6217H100.106C101.906 34.6217 102.997 34.1776 103.76 33.1792C104.142 32.6805 104.688 31.7925 104.688 30.1292C104.688 28.4659 104.142 27.3012 103.051 26.469C102.397 25.9703 101.524 25.6937 100.051 25.6937H95.3586V34.6217Z" fill="#543018"/>
</g>
</svg>

<svg width="112" height="40" fill="none" xmlns="http://www.w3.org/2000/svg"><path fill-rule="evenodd" clip-rule="evenodd" d="M7.572 0L5.678 5.232h26.249L33.82 0H7.572zM4.73 7.847L2.836 13.08h26.249l1.894-5.232H4.73zm-2.836 7.848L0 20.926h26.249l1.893-5.231H1.894z" fill="#543018"/><mask id="a" maskUnits="userSpaceOnUse" x="39" y="7" width="73" height="34"><path d="M39.38 40h71.853V7.948H39.38V40z" fill="#543018"/></mask><g mask="url(#a)"><path fill-rule="evenodd" clip-rule="evenodd" d="M55.803 22.92v.11c1.2.445 2.346 1.221 2.946 1.72 1.855 1.553 2.674 3.604 2.674 6.266 0 4.382-2.292 7.543-6.057 8.541-1.146.332-2.345.444-4.583.444H39.38V7.948h10.094c2.073 0 3.49.11 4.745.443 3.657.999 6.057 3.55 6.057 7.597 0 2.163-.764 3.994-2.019 5.213-.545.555-1.309 1.22-2.455 1.72zM45.71 26.303v8.43h4.365c1.308 0 2.509-.111 3.383-.944.872-.832 1.254-1.885 1.254-3.272 0-1.053-.273-2.051-.819-2.772-.927-1.164-2.073-1.442-4.036-1.442H45.71zm-.055-5.546h3.546c1.091 0 1.637 0 2.182-.166 1.474-.444 2.402-1.774 2.402-3.604 0-2.162-.983-3.106-2.402-3.549-.6-.166-1.2-.222-2.4-.222h-3.328v7.541zm25.26 19.244V13.326h-9.11V7.948H87.12l-1.8 5.378h-8.076v26.675h-6.328zm18.169 0V7.948h20.514l-1.799 5.378h-12.44v7.099h5.074c4.091 0 6.22.998 7.693 2.273 1.145.999 3.109 3.216 3.109 7.599 0 4.325-2.018 6.709-3.71 7.93-1.963 1.385-4.037 1.774-8.238 1.774H89.084zm6.275-5.38h4.747c1.8 0 2.891-.443 3.654-1.442.382-.498.928-1.387.928-3.05 0-1.663-.546-2.828-1.637-3.66-.654-.499-1.527-.775-3-.775h-4.692v8.928z" fill="#543018"/></g></svg>
